!!!COM: Music21
!!!OTL: hornpipe_Colcloughs
!!!OMV: hornpipe_Colcloughs
**kern
*clefG2
*k[f#]
*G:
*M4/4
=1
12dL
12e
12f#J
=||
4g
8gL
8f#J
8gL
8aJ
8bL
8ccJ
=
8ddL
8bJ
8ccL
8aJ
8gL
8aJ
8bL
8ccJ
=
8ddL
8bJ
8ggL
8ff#J
8eeL
8ddJ
8ccL
8bJ
=
8ccL
8aJ
8aL
8gJ
8aL
8ccJ
8bL
8aJ
=
4g
8gL
8f#J
8gL
8aJ
8bL
8ccJ
!!linebreak:original
=
8ddL
8bJ
8ccL
8aJ
8gL
8eeJ
8ddL
8ccJ
=
8bL
8ddJ
8bL
8gJ
8aL
8ccJ
8aL
8f#J
=
8gL
8bJ
8aL
8f#J
4g
12dL
12e
12f#J
=||
4g
8gL
8f#J
8gL
8aJ
8bL
8ccJ
=
8ddL
8bJ
8ccL
8aJ
8gL
8aJ
8bL
8ccJ
!!linebreak:original
=
8ddL
8bJ
8ggL
8ff#J
8eeL
8ddJ
8ccL
8bJ
=
8ccL
8aJ
8aL
8gJ
8aL
8ccJ
8bL
8aJ
=
4g
8gL
8f#J
8gL
8aJ
8bL
8ccJ
=
8ddL
8bJ
8ccL
8aJ
8gL
8eeJ
8ddL
8ccJ
=
8bL
8ddJ
8bL
8gJ
8aL
8ccJ
8aL
8f#J
!!linebreak:original
=
8gL
8bJ
8aL
8f#J
4g
12ddL
12ee
12ff#J
=||
8ggL
8ddJ
8bL
8ddJ
8ggL
8bbJ
8aaL
8ff#J
=
8ggL
8ddJ
8bL
8ddJ
8eeL
8ggJ
8ff#L
8eeJ
=
8ddL
8bJ
8ccL
8aJ
8bL
8ddJ
8eeL
8ggJ
=
4ff#
4dd
4dd
8r
8ff#
!!linebreak:original
=
8ggL
8ddJ
8bL
8ddJ
8ggL
8ddJ
8ggL
8eeJ
=
8ddL
8bJ
8gL
8bJ
8ccL
8aJ
8eeL
8ccJ
=
8eeL
8ccJ
8ddL
8bJ
8ccL
8aJ
8f#L
8gJ
=
8gL
8bJ
8aL
8f#J
4.g
8r
=||
8ggL
8ddJ
8bL
8ddJ
8ggL
8bbJ
8aaL
8ff#J
!!linebreak:original
=
8ggL
8ddJ
8bL
8ddJ
8eeL
8ggJ
8ff#L
8eeJ
=
8ddL
8bJ
8ccL
8aJ
8bL
8ddJ
8eeL
8ggJ
=
4ff#
4dd
4dd
8r
8ff#
=
8ggL
8ddJ
8bL
8ddJ
8ggL
8ddJ
8ggL
8eeJ
=
8ddL
8bJ
8gL
8bJ
8ccL
8aJ
8eeL
8ccJ
!!linebreak:original
=
8eeL
8ccJ
8ddL
8bJ
8ccL
8aJ
8f#L
8gJ
=
8gL
8bJ
8aL
8f#J
4g
8ddL
8ccJ
=||
8bL
8gJ
8ddL
8gJ
8bL
8gJ
8ddL
8gJ
=
8ccL
8aJ
8eeL
8aJ
8ccL
8aJ
8eeL
8aJ
=
8bL
8gJ
8ddL
8gJ
8bL
8gJ
8ddL
8bJ
!!linebreak:original
=
8aL
8gJ
8f#L
8eJ
4d
8ddL
8ccJ
=
8bL
8gJ
8ddL
8gJ
8bL
8gJ
8ddL
8gJ
=
8ccL
8aJ
8eeL
8aJ
8ccL
8aJ
8eeL
8aaJ
=
8ggL
8ff#J
8ggL
8eeJ
8ddL
8bJ
8ccL
8aJ
=
8gL
8ddJ
8bL
8aJ
4g
12ddL
12ee
12ff#J
!!linebreak:original
=||
8bL
8gJ
8ddL
8gJ
8bL
8gJ
8ddL
8gJ
=
8ccL
8aJ
8eeL
8aJ
8ccL
8aJ
8eeL
8aJ
=
8bL
8gJ
8ddL
8gJ
8bL
8gJ
8ddL
8bJ
=
8aL
8gJ
8f#L
8eJ
4d
8ddL
8ccJ
=
8bL
8gJ
8ddL
8gJ
8bL
8gJ
8ddL
8gJ
!!linebreak:original
=
8ccL
8aJ
8eeL
8aJ
8ccL
8aJ
8eeL
8aaJ
=
8ggL
8ff#J
8ggL
8eeJ
8ddL
8bJ
8ccL
8aJ
=
8gL
8bJ
8aL
8f#J
2g
=||
*-
